img/svg/cloud-bg.svg

<?xml version="1.0" encoding="utf-8"?>
<!DOCTYPE svg PUBLIC "-//W3C//DTD SVG 1.1//EN" "http://www.w3.org/Graphics/SVG/1.1/DTD/svg11.dtd">
<svg version="1.1" baseProfile="full"
 xmlns="http://www.w3.org/2000/svg"
 xmlns:xlink="http://www.w3.org/1999/xlink"
 xmlns:ev="http://www.w3.org/2001/xml-events" 
  height="83px" 
  width="184px" 
>
<path fill="rgb( 255, 255, 255 )"
 d="M182.996,29.496 C183.154,26.228 181.991,23.093 180.84,19.924 C179.996,17.599 178.49,15.426 177.549,13.229 C175.78,11.904 170.404,7.48899999999998 166.128,6.31599999999997 C163.029,5.54199999999997 154.238,3.18299999999999 149.457,2.64499999999998 C144.803,2.12099999999998 140.251,1.41399999999999 135.469,1.50400000000002 C132.984,1.55099999999999 124.361,1.44200000000001 122.51,1.08499999999998 C120.808,0.75700000000001 113.64,1.53800000000001 111.63,1.23099999999999 C109.966,0.97699999999998 94.179,1.54300000000001 88.164,1.56900000000002 C86.922,1.57499999999999 74.729,2.23200000000003 69.843,2.28399999999999 C68.186,2.30099999999999 56.739,2.99200000000002 52.627,3.03399999999999 C50.9829999999999,3.05099999999999 43.173,3.56299999999999 41.0599999999999,3.95400000000001 C38.6319999999999,4.404 30.27,5.93599999999998 28.23,6.14800000000002 C25.489,6.43200000000002 17.011,9.95699999999999 14.939,10.535 C12.777,11.137 9.197,14.206 8.64599999999996,14.561 C5.16300000000001,16.81 1.16099999999994,23.625 1.07899999999995,24.232 C0.66399999999999,27.308 2.09799999999996,40.646 2.11500000000001,41.273 C2.16300000000001,43.028 2.37800000000004,48.042 2.68299999999999,48.756 C3.70600000000002,51.153 4.12099999999998,53.649 5.83199999999999,55.935 C6.15599999999995,59.217 10.0940000000001,61.262 13.277,63.468 C15.665,65.123 23.831,67.842 24.813,68.012 C30.177,68.942 35.595,69.501 41.216,69.456 C50.3390000000001,69.382 42.053,68.974 46.807,68.981 C47.67,68.982 48.622,68.876 49.378,69.057 C50.962,69.436 112.099,69.331 113.702,69.354 C115.537,69.38 117.374,69.36 118.997,69.36 C121.213,69.863 126.507,72.36 128.195,73.235 C128.514,73.401 128.944,73.486 129.323,73.609 C132.921,74.779 136.297,76.163 139.636,77.582 C140.777,78.067 141.898,78.572 142.983,79.102 C143.829,79.516 144.92,79.567 145.813,79.986 C148.089,81.054 150.543,81.982 153.005,82.998 C154.187,82.948 154.809,82.424 155.457,81.797 C155.392,81.467 155.425,81.059 155.218,80.703 C154.541,79.537 153.939,78.358 153.106,77.221 C152.285,76.101 152.124,74.836 151.174,73.717 C150.408,72.814 145.914,68.41 145.269,67.412 C146.693,67.185 148.069,67.033 149.358,66.741 C150.664,66.445 151.915,66.043 153.135,65.629 C155.399,64.861 167.876,61.868 171.653,59.949 C172.12,59.712 176.429,54.592 178.016,52.296 C179.04,50.813 182.368,42.316 181.78,39.532 C181.679,39.055 182.88,35.88 182.912,34.763 C182.962,33.007 182.911,31.25 182.996,29.496 Z "/>
<path stroke="rgb( 161, 174, 179 )" stroke-width="1px" stroke-dasharray="4, 2" stroke-linecap="butt" stroke-linejoin="miter" fill="none"
 d="M179.581,30.401 C179.734,27.406 178.609,24.533 177.496,21.628 C176.68,19.496 175.223,17.505 174.313,15.491 C172.602,14.276 167.403,10.229 163.267,9.154 C160.27,8.44400000000002 151.768,6.28300000000002 147.143,5.78899999999999 C142.642,5.30900000000003 138.24,4.661 133.615,4.743 C131.211,4.786 122.871,4.68700000000001 121.081,4.35899999999998 C119.435,4.05799999999999 112.502,4.774 110.558,4.493 C108.949,4.26100000000002 93.68,4.779 87.8630000000001,4.803 C86.6609999999999,4.80799999999999 74.869,5.411 70.143,5.45800000000003 C68.54,5.47399999999999 57.4690000000001,6.10700000000003 53.492,6.14600000000002 C51.902,6.161 44.348,6.63 42.304,6.98899999999998 C39.956,7.40100000000001 31.869,8.80599999999998 29.896,9 C27.245,9.26100000000002 19.045,12.492 17.0410000000001,13.021 C14.95,13.573 11.487,16.387 10.955,16.712 C7.58600000000001,18.773 3.71500000000003,25.02 3.63599999999997,25.577 C3.23500000000001,28.396 4.62099999999998,40.622 4.63800000000003,41.196 C4.68499999999995,42.805 4.89300000000003,47.402 5.18700000000001,48.056 C6.17700000000002,50.253 6.57799999999997,52.541 8.23299999999995,54.636 C8.54700000000003,57.645 12.355,59.519 15.434,61.541 C17.7430000000001,63.058 25.641,65.551 26.591,65.707 C31.779,66.558 37.019,67.072 42.455,67.03 C51.279,66.962 41.295,66.698 45.8920000000001,66.704 C46.727,66.705 47.647,66.607 48.379,66.773 C49.9109999999999,67.121 110.995,67.025 112.546,67.046 C114.32,67.07 116.097,67.051 117.667,67.051 C119.811,67.512 121.021,66.56 122.654,67.362 C122.962,67.514 123.379,67.592 123.745,67.705 C127.225,68.777 134.49,73.463 137.719,74.763 C138.823,75.208 139.908,75.67 140.957,76.157 C141.775,76.536 142.83,76.583 143.694,76.967 C145.895,77.946 148.269,78.796 150.65,79.728 C151.793,79.682 152.395,79.202 153.021,78.626 C152.958,78.324 152.991,77.951 152.79,77.624 C152.135,76.555 151.553,75.474 150.747,74.432 C149.953,73.405 145.798,68.83 144.879,67.804 C144.138,66.976 143.66,66.071 143.036,65.157 C144.414,64.948 145.744,64.809 146.991,64.541 C148.254,64.27 149.464,63.902 150.644,63.522 C152.833,62.818 164.957,60.075 168.611,58.315 C169.062,58.099 173.23,53.405 174.764,51.301 C175.755,49.941 178.974,42.153 178.405,39.6 C178.307,39.163 179.469,36.253 179.5,35.229 C179.549,33.62 179.499,32.01 179.581,30.401 Z "/>
</svg>

<svg baseProfile="full" xmlns="http://www.w3.org/2000/svg" height="83" width="184"><path fill="rgb( 255, 255, 255 )" d="M182.996 29.496c.158-3.268-1.005-6.403-2.156-9.572-.844-2.325-2.35-4.498-3.291-6.695-1.769-1.325-7.145-5.74-11.421-6.913-3.099-.774-11.89-3.133-16.671-3.671-4.654-.524-9.206-1.231-13.988-1.141-2.485.047-11.108-.062-12.959-.419-1.702-.328-8.87.453-10.88.146-1.664-.254-17.451.312-23.466.338-1.242.006-13.435.663-18.321.715-1.657.017-13.104.708-17.216.75-1.644.017-9.454.529-11.567.92-2.428.45-10.79 1.982-12.83 2.194-2.741.284-11.219 3.809-13.291 4.387-2.162.602-5.742 3.671-6.293 4.026-3.483 2.249-7.485 9.064-7.567 9.671-.415 3.076 1.019 16.414 1.036 17.041.048 1.755.263 6.769.568 7.483 1.023 2.397 1.438 4.893 3.149 7.179.324 3.282 4.262 5.327 7.445 7.533 2.388 1.655 10.554 4.374 11.536 4.544 5.364.93 10.782 1.489 16.403 1.444 9.123-.074.837-.482 5.591-.475.863.001 1.815-.105 2.571.076 1.584.379 62.721.274 64.324.297 1.835.026 3.672.006 5.295.006 2.216.503 7.51 3 9.198 3.875.319.166.749.251 1.128.374 3.598 1.17 6.974 2.554 10.313 3.973 1.141.485 2.262.99 3.347 1.52.846.414 1.937.465 2.83.884 2.276 1.068 4.73 1.996 7.192 3.012 1.182-.05 1.804-.574 2.452-1.201-.065-.33-.032-.738-.239-1.094-.677-1.166-1.279-2.345-2.112-3.482-.821-1.12-.982-2.385-1.932-3.504-.766-.903-5.26-5.307-5.905-6.305 1.424-.227 2.8-.379 4.089-.671 1.306-.296 2.557-.698 3.777-1.112 2.264-.768 14.741-3.761 18.518-5.68.467-.237 4.776-5.357 6.363-7.653 1.024-1.483 4.352-9.98 3.764-12.764-.101-.477 1.1-3.652 1.132-4.769.05-1.756-.001-3.513.084-5.267z"/><path stroke="rgb( 161, 174, 179 )" stroke-dasharray="4, 2" d="M179.581 30.401c.153-2.995-.972-5.868-2.085-8.773-.816-2.132-2.273-4.123-3.183-6.137-1.711-1.215-6.91-5.262-11.046-6.337-2.997-.71-11.499-2.871-16.124-3.365-4.501-.48-8.903-1.128-13.528-1.046-2.404.043-10.744-.056-12.534-.384-1.646-.301-8.579.415-10.523.134-1.609-.232-16.878.286-22.695.31-1.202.005-12.994.608-17.72.655-1.603.016-12.674.649-16.651.688-1.59.015-9.144.484-11.188.843-2.348.412-10.435 1.817-12.408 2.011-2.651.261-10.851 3.492-12.855 4.021-2.091.552-5.554 3.366-6.086 3.691-3.369 2.061-7.24 8.308-7.319 8.865-.401 2.819.985 15.045 1.002 15.619.047 1.609.255 6.206.549 6.86.99 2.197 1.391 4.485 3.046 6.58.314 3.009 4.122 4.883 7.201 6.905 2.309 1.517 10.207 4.01 11.157 4.166 5.188.851 10.428 1.365 15.864 1.323 8.824-.068-1.16-.332 3.437-.326.835.001 1.755-.097 2.487.069 1.532.348 62.616.252 64.167.273 1.774.024 3.551.005 5.121.005 2.144.461 3.354-.491 4.987.311.308.152.725.23 1.091.343 3.48 1.072 10.745 5.758 13.974 7.058 1.104.445 2.189.907 3.238 1.394.818.379 1.873.426 2.737.81 2.201.979 4.575 1.829 6.956 2.761 1.143-.046 1.745-.526 2.371-1.102-.063-.302-.03-.675-.231-1.002-.655-1.069-1.237-2.15-2.043-3.192-.794-1.027-4.949-5.602-5.868-6.628-.741-.828-1.219-1.733-1.843-2.647 1.378-.209 2.708-.348 3.955-.616 1.263-.271 2.473-.639 3.653-1.019 2.189-.704 14.313-3.447 17.967-5.207.451-.216 4.619-4.91 6.153-7.014.991-1.36 4.21-9.148 3.641-11.701-.098-.437 1.064-3.347 1.095-4.371.049-1.609-.001-3.219.081-4.828z" fill="none"/></svg>
